X:0079
M:2/4
L:1/16
Q:1/4=104
P:ABA % Aird prints a da capo
K:D
P:A
P:B
f2|a2b2 a2g2|fefg f2fg|a3b  a2g2|f4   f2:|
f2|g2ga g2e2|f2fg f2d2|g2ga g2e2|a4   a2:|

